tenants/vtwonen/icons/channel_youtube.svg

<svg fill="none" height="24" viewBox="0 0 24 24" width="24" xmlns="http://www.w3.org/2000/svg" xmlns:xlink="http://www.w3.org/1999/xlink"><clipPath id="a"><path d="m0 0h24v24h-24z"/></clipPath><g clip-path="url(#a)"><circle cx="12" cy="12" fill="#000" r="12"/><g clip-rule="evenodd" fill-rule="evenodd"><path d="m7.02185 18.8799 12.09125-6.8554-12.09125-6.90408z" fill="#fff"/><path d="m6.44672 11.313c.0137-.0548.06695-.2998.08216-.356.03652-.1552.05478-.2982.11107-.4291.06847-.1597.16584-.2951.2617-.429.06999-.0989.13693-.19322.22061-.27538.01978-.01978.03652-.03956.0563-.05933.09737-.07303.20236-.14454.32103-.19626.06999-.03195.13998-.05934.21149-.08977.10194-.04564.19932-.0928.31799-.12627.1202-.03652.3043-.03347.42146.00152.04564.01521.08824.0213.12932.04108.19628.08367.33169.22516.44124.39708.07759.12475.13237.27083.18105.42293.0137.0396.01674.0822.02435.1248.00608.0274.00304.0836-.00305.1065-.00456.0289-.00152.0517-.00913.0791-.01217.0426-.0213.0913-.03651.1308-.02282.0715-.03347.14-.05782.2085-.04869.1506-.09889.3027-.15823.4442-.09129.2252-.17954.4442-.29974.642-.02586.0426-.0426.0883-.06694.1278-.01522.0259-.02435.0518-.03652.0791-.02586.0502-.05325.1035-.08216.1522-.0213.035-.03043.0715-.05325.1065-.04565.0776-.08825.1597-.13541.2373-.05478.0852-.11564.1658-.17497.245-.06086.0791-.1415.1445-.21149.2145-.06695.0684-.13541.1369-.20388.2054-.04108.0426-.08673.0806-.12476.1278-.01522.0137-.02739.0273-.04413.0395-.03803.0426-.08368.0852-.1202.1309-.01369.0121-.02738.0258-.04108.0395-.0289.0289-.05781.0593-.08216.0928-.01825.0168-.03803.035-.05781.0533-.04717.0608-.10803.1095-.15519.1688-.01826.0183-.035.0335-.05174.0502-.0213.029-.04564.0548-.06998.0807-.01065.0076-.02283.0182-.03348.0289-.0426.0563-.07911.1019-.13541.1445-.01978.0213-.08368.0928-.10194.1126-.05173.0654-.04869.0715-.09585.1202-.0563.0563-.10651.1187-.1628.1734-.01522.0152-.05021.0533-.06999.0518-.03347-.0229-.05782-.0609-.08673-.0898-.05173-.0563-.12324-.0974-.20996-.1689-.02891-.0289-.0563-.0578-.08673-.0852-.07455-.1004-.18258-.1734-.26017-.2738-.02282-.032-.05782-.0563-.08368-.0883-.02891-.0289-.05782-.0578-.08673-.0852-.03347-.0426-.0776-.0836-.11563-.1247-.0213-.0183-.02435-.0244-.04565-.0441-.00913-.0153-.02586-.0381-.03499-.0502-.01978-.0335-.0563-.0609-.08216-.0944-.07912-.1065-.17041-.1993-.24801-.3043-.01521-.0182-.03803-.0349-.05173-.0547-.0639-.0852-.13845-.1598-.19779-.245-.05477-.0791-.10346-.1643-.15671-.2464-.01065-.0213-.01522-.0442-.02891-.0655-.02739-.0426-.05478-.0943-.07608-.1414-.06238-.14-.11715-.2815-.17953-.4199-.08368-.1917-.17193-.3728-.23279-.5903-.0213-.0731-.03195-.1948-.02587-.28.00457-.0426-.00304-.0852.00609-.1202.00152-.0198.00152-.0365.00304-.0547.00913-.0548.01826-.1111.02891-.1659.04108-.1521.08368-.2936.14302-.4275.05934-.1384.14606-.2601.23127-.3743.02282-.0334.04869-.0669.07607-.0973.12477-.12477.24648-.21149.44276-.26779.05477-.01521.14758-.03042.21605-.01521.03651.00761.07303.01217.11259.0213.13237.04564.24648.10345.34994.17648.18106.12632.30886.29822.42754.48682.05782.0883.1202.1811.16432.283.04717.1065.08521.2206.12476.3378.02891.0836.035.1719.05782.2601" fill="#e40047"/></g></g></svg>

<svg width="24" height="24" viewBox="0 0 24 24" fill="none" xmlns="http://www.w3.org/2000/svg">
<g clip-path="url(#clip0_2128_24084)">
<circle cx="12" cy="12" r="12" fill="black"/>
<path fill-rule="evenodd" clip-rule="evenodd" d="M7.02185 18.8799L19.1131 12.0245L7.02185 5.12042V18.8799Z" fill="white"/>
<path fill-rule="evenodd" clip-rule="evenodd" d="M6.44672 11.313C6.46042 11.2582 6.51367 11.0132 6.52888 10.957C6.5654 10.8018 6.58366 10.6588 6.63995 10.5279C6.70842 10.3682 6.80579 10.2328 6.90165 10.0989C6.97164 10 7.03858 9.90568 7.12226 9.82352C7.14204 9.80374 7.15878 9.78396 7.17856 9.76419C7.27593 9.69116 7.38092 9.61965 7.49959 9.56793C7.56958 9.53598 7.63957 9.50859 7.71108 9.47816C7.81302 9.43252 7.9104 9.38536 8.02907 9.35189C8.14927 9.31537 8.33337 9.31842 8.45053 9.35341C8.49617 9.36862 8.53877 9.37471 8.57985 9.39449C8.77613 9.47816 8.91154 9.61965 9.02109 9.79157C9.09868 9.91632 9.15346 10.0624 9.20214 10.2145C9.21584 10.2541 9.21888 10.2967 9.22649 10.3393C9.23257 10.3667 9.22953 10.4229 9.22344 10.4458C9.21888 10.4747 9.22192 10.4975 9.21431 10.5249C9.20214 10.5675 9.19301 10.6162 9.1778 10.6557C9.15498 10.7272 9.14433 10.7957 9.11998 10.8642C9.07129 11.0148 9.02109 11.1669 8.96175 11.3084C8.87046 11.5336 8.78221 11.7526 8.66201 11.9504C8.63615 11.993 8.61941 12.0387 8.59507 12.0782C8.57985 12.1041 8.57072 12.13 8.55855 12.1573C8.53269 12.2075 8.5053 12.2608 8.47639 12.3095C8.45509 12.3445 8.44596 12.381 8.42314 12.416C8.37749 12.4936 8.33489 12.5757 8.28773 12.6533C8.23295 12.7385 8.17209 12.8191 8.11276 12.8983C8.0519 12.9774 7.97126 13.0428 7.90127 13.1128C7.83432 13.1812 7.76586 13.2497 7.69739 13.3182C7.65631 13.3608 7.61066 13.3988 7.57263 13.446C7.55741 13.4597 7.54524 13.4733 7.5285 13.4855C7.49047 13.5281 7.44482 13.5707 7.4083 13.6164C7.39461 13.6285 7.38092 13.6422 7.36722 13.6559C7.33832 13.6848 7.30941 13.7152 7.28506 13.7487C7.26681 13.7655 7.24703 13.7837 7.22725 13.802C7.18008 13.8628 7.11922 13.9115 7.07206 13.9708C7.0538 13.9891 7.03706 14.0043 7.02032 14.021C6.99902 14.05 6.97468 14.0758 6.95034 14.1017C6.93969 14.1093 6.92751 14.1199 6.91686 14.1306C6.87426 14.1869 6.83775 14.2325 6.78145 14.2751C6.76167 14.2964 6.69777 14.3679 6.67951 14.3877C6.62778 14.4531 6.63082 14.4592 6.58366 14.5079C6.52736 14.5642 6.47715 14.6266 6.42086 14.6813C6.40564 14.6965 6.37065 14.7346 6.35087 14.7331C6.3174 14.7102 6.29305 14.6722 6.26414 14.6433C6.21241 14.587 6.1409 14.5459 6.05418 14.4744C6.02527 14.4455 5.99788 14.4166 5.96745 14.3892C5.8929 14.2888 5.78487 14.2158 5.70728 14.1154C5.68446 14.0834 5.64946 14.0591 5.6236 14.0271C5.59469 13.9982 5.56578 13.9693 5.53687 13.9419C5.5034 13.8993 5.45927 13.8583 5.42124 13.8172C5.39994 13.7989 5.39689 13.7928 5.37559 13.7731C5.36646 13.7578 5.34973 13.735 5.3406 13.7229C5.32082 13.6894 5.2843 13.662 5.25844 13.6285C5.17932 13.522 5.08803 13.4292 5.01043 13.3242C4.99522 13.306 4.9724 13.2893 4.9587 13.2695C4.8948 13.1843 4.82025 13.1097 4.76091 13.0245C4.70614 12.9454 4.65745 12.8602 4.6042 12.7781C4.59355 12.7568 4.58898 12.7339 4.57529 12.7126C4.5479 12.67 4.52051 12.6183 4.49921 12.5712C4.43683 12.4312 4.38206 12.2897 4.31968 12.1513C4.236 11.9596 4.14775 11.7785 4.08689 11.561C4.06559 11.4879 4.05494 11.3662 4.06102 11.281C4.06559 11.2384 4.05798 11.1958 4.06711 11.1608C4.06863 11.141 4.06863 11.1243 4.07015 11.1061C4.07928 11.0513 4.08841 10.995 4.09906 10.9402C4.14014 10.7881 4.18274 10.6466 4.24208 10.5127C4.30142 10.3743 4.38814 10.2526 4.47335 10.1384C4.49617 10.105 4.52204 10.0715 4.54942 10.0411C4.67419 9.91633 4.7959 9.82961 4.99218 9.77331C5.04695 9.7581 5.13976 9.74289 5.20823 9.7581C5.24474 9.76571 5.28126 9.77027 5.32082 9.7794C5.45319 9.82504 5.5673 9.88285 5.67076 9.95588C5.85182 10.0822 5.97962 10.2541 6.0983 10.4427C6.15612 10.531 6.2185 10.6238 6.26262 10.7257C6.30979 10.8322 6.34783 10.9463 6.38738 11.0635C6.41629 11.1471 6.42238 11.2354 6.4452 11.3236" fill="#E40047"/>
</g>
<defs>
<clipPath id="clip0_2128_24084">
<rect width="24" height="24" fill="white"/>
</clipPath>
</defs>
</svg>
